X:32
T:Boys of the Town                                                                                  
M:6/8                                                                                               
L:1/8                                                                                               
K:G                                                                                                 
f|ged B2 A|B/A/GE G2 A|B3 ABA|G2 (3Bcd e2 d|\                                                       
ged B2 A|B/A/GE G2 A|B3 ABA|AGF G2 :|                                                               
d|def gfg|eaa eaa|bag e2 d|efg efg|\                                                                
def g3|afd efg|edB AGA|B/A/GF G2 :|
